X: 13
T: The Morning Dew
R: reel
M: 4/4
L: 1/8
K: Edor
|:E3B BAFD|E2BE AFDF|E3B BAFA|BcdB AFDF|
E3B BAFD|EBEB AFDF|E3B BAFA|BcdB AFDF||
|:B2 eBgB eB|BcdB AFDA|B2 gBfB eB|BcdB AFDA|
B2 eB eBgB eB|BcdB AFDA|(3Bcd ef gfge|dcdB AFDA||
|:BAGF EFGA|B2 GB AFDA|BAGF EFGA|BcdB AFDA|
BAGF EFGA|BDGB AFDA|BAGF EFGA|BcdB AFDA||